X:1
T:Title
%%score 1 2
L:1/8
Q:1/4=110
M:4/4
K:F
V:1 treble nm="Grand Piano, Soprano"
V:2 bass nm="Choir Pad, San Salvador, S. M. Brown"
V:1
 [FA]2 [FA]>[FG] F2 [FA]2 | [DB]4 [Fd]2 z2 | [Fc]2 [Fd]>[Fc] [FA]2 F2 | [EG]6 z2 | %4
w: By~Sanford~Miller~Brown,~1889 * * * *||||
 [FA]2 [FA]>[FG] F2 [FA]2 | [DB]4 [Fd]2 z2 | [Fc]2 [Fd]>[Fc] [FA]2 [EG]2 | F6 z2 | %8
w: ||||
 [Fd]2 [Fd]>[Fd] [Fd]2 [Fd]2 | [Fc]3 [FA] [Fc]2 z2 | [Fd]2 [Fd]>[Fd] [Fc]2 [FA]2 | [EG]6 z2 | %12
w: ||||
 [FA]2 [FA]>[FG] F2 [FA]2 | [FB]3 [Fc] [Fd]2 z2 | [Fc]2 [Fd]>[Fc] [FA]2 [EG]2 | F8 |] %16
w: ||||
V:2
 [F,C]2 [F,C]>[F,B,] [F,A,]2 [F,C]2 | [B,,B,]4 [B,,B,]2 z2 | [F,A,]2 [F,B,]>[F,A,] [F,C]2 [F,A,]2 | %3
 [C,C]6 z2 | [F,C]2 [F,C]>[F,B,] [F,A,]2 [F,C]2 | [B,,B,]4 [B,,B,]2 z2 | %6
 [F,A,]2 [F,B,]>[F,A,] [C,C]2 [C,B,]2 | [F,A,]6 z2 | [B,,B,]2 [B,,B,]>[B,,B,] [B,,B,]2 [B,,B,]2 | %9
 [F,A,]3 [F,C] [F,A,]2 z2 | [B,,B,]2 [B,,B,]>[B,,B,] [F,A,]2 [F,C]2 | [C,C]6 z2 | %12
 [F,C]2 [F,C]>[F,B,] [F,A,]2 [_E,C]2 | [D,B,]3 [C,A,] [B,,B,]2 z2 | %14
 [F,A,]2 [F,B,]>[F,A,] [C,C]2 [C,B,]2 | [F,A,]8 |] %16

